svgs/light/magnifying-glass-plus.svg

<svg xmlns="http://www.w3.org/2000/svg" viewBox="0 0 512 512"><!-- Font Awesome Pro 6.0.0-alpha2 by @fontawesome - https://fontawesome.com License - https://fontawesome.com/license (Commercial License) --><path d="M288 192H224V128C224 119.156 216.844 112 208 112S192 119.156 192 128V192H128C119.156 192 112 199.156 112 208S119.156 224 128 224H192V288C192 296.844 199.156 304 208 304S224 296.844 224 288V224H288C296.844 224 304 216.844 304 208S296.844 192 288 192ZM507.312 484.688L365.85 343.227C397.041 306.848 416 259.676 416 208C416 93.125 322.875 0 208 0S0 93.125 0 208S93.125 416 208 416C259.676 416 306.848 397.039 343.225 365.852L484.687 507.312C487.812 510.438 491.906 512 496 512S504.188 510.438 507.312 507.312C513.562 501.062 513.562 490.938 507.312 484.688ZM208 384C110.953 384 32 305.047 32 208S110.953 32 208 32S384 110.953 384 208S305.047 384 208 384Z"/></svg>

<svg xmlns="http://www.w3.org/2000/svg" viewBox="0 0 512 512"><!--! Font Awesome Pro 6.0.0-alpha3 by @fontawesome - https://fontawesome.com License - https://fontawesome.com/license (Commercial License) --><path d="M288 192H224V128c0-8.844-7.156-16-16-16S192 119.2 192 128v64H128C119.2 192 112 199.2 112 208S119.2 224 128 224h64v64c0 8.844 7.156 16 16 16S224 296.8 224 288V224h64c8.844 0 16-7.156 16-16S296.8 192 288 192zM507.3 484.7l-141.5-141.5C397 306.8 416 259.7 416 208C416 93.13 322.9 0 208 0S0 93.13 0 208S93.13 416 208 416c51.68 0 98.85-18.96 135.2-50.15l141.5 141.5C487.8 510.4 491.9 512 496 512s8.188-1.562 11.31-4.688C513.6 501.1 513.6 490.9 507.3 484.7zM208 384C110.1 384 32 305 32 208S110.1 32 208 32S384 110.1 384 208S305 384 208 384z"/></svg>
